X:79
T:Shove that Pig’s Foot a Little Farther in the Fire
C:Traditional
S:https://JamBuddy.live
R:Reel
M:4/4
K:G
GA|:"G"BdBA G2 EF|"C"GAGE "G"D4|DE G2 B3c|"D"B2 A4 GA|
|"G"BdBA G2 EF|"C"GAGE "G"D3D|DE G2 "D"B3G|1 "G"A2  G4 GA:|2 "G"A2  G4  BA|]
|:"G"B (dd2)  dBdg|"C"edBc "G"d4|"C"g4g3d|"D"e2 d4 dd|
|"G"B (dd2)  dBdg|"C"edBc "G"d4|BABd  "D"BAGB|1 "G"A2 G4 BA:|2 "G"A2 G6||

